X:1
T:Stelle vezzose
T:Stelle vezzose
T:Gio.Girolamo Kapsperger
C:Gio.Girolamo Kapsperger
%%score [ 1 2 3 ] { 4 | 5 }
L:1/8
Q:1/4=120
M:6/4
K:C
V:1 treble nm="Soprano 1" snm="S 1"
V:2 treble nm="Soprano 2" snm="S 2"
V:3 bass nm="Bass" snm="B"
V:4 treble nm="BC" snm="BC"
V:5 bass 
V:1
 c6 d4 e2 | f6 f6 | c6 d4 d2 | e6 e4 A2 | A2 B2 c2 B3 B ^c2 | d6 d4 e2 | ed cB c6 B2 | A6 A6 :: %8
w: Stel- le vez-|zo- se,|stel- le ri-|den- ti, i|fer- * * * vi- di'ac-|cen- ti, i|dit' _ _ _ a- mo-|ro- se.|
w: Fon- ti del|ri- so,|lam- pi de|co- ri, tre-|mo- * * * li- ar-|do- ri, che|v'or- * * * na- no'il|vi- so.|
 ^c2 d2 e2 f2 f2 e2 | d2 e2 B2 ^c4 c2 | f2 f2 g2 e2 e2 d2 | c4 c2 d2 B4 | c12 :| %13
w: Co- me splen- de- te si|va- gh'e s bel- le,|co- me ru- bel- le d'A-|mor non ar- de-|te.|
w: Co- me nel cie- lo a-|ma- to'e se- re- no,|del vo- stro se- no si|fan- no di gie-|lo!|
V:2
 E6 F4 G2 | A6 A6 | A6 A4 B2 | c6 G4 E2 | F6 G4 G2 | A6 F4 A2 | cB AG A6 ^G2 | A6 A6 :: %8
w: Stel- le vez-|zo- se,|stel- le ri-|den- ti, i|fer- vi di'ac-|cen- ti, i|dit' _ _ _ a- mo-|ro- se.|
w: Fon- ti del|ri- so,|lam- pi de|co- ri, tre-|mo- li ar-|do- ri, che|v'or- * * * na- no'il|vi- so.|
 A2 G2 G2 F2 D2 G2 | G2 G2 F2 E4 E2 | A2 A2 B2 c2 c2 B2 | G4 A2 F2 D4 | E12 :| %13
w: Co me splen- de- te si|va- gh'e si bel- le,|co- me ru- bel- le d'A-|mor non ar- de-|te.|
w: Co- me nel cie- lo a-|ma- to'e se- re- no,|del vo- stro se- no si|fan- no di gie-|lo!|
V:3
 C2 B,2 A,2 G,2 F,2 E,2 | D,6 D,6 | A,2 G,2 F,2 E,2 D,2 G,2 | C,6 C,4 C,2 | %4
w: Stel- * * le _ vez|zo se,|stel- * * le _ ri-|den- ti, i|
w: Fon- * * ti _ del|ri- so,|lam- * * pi _ de|co- ri, tre-|
 F,2 G,2 A,2 G,2 F,2 E,2 | D,6 D,4 A,,2 | A,2 G,2 F,2 E,2 D,2 E,2 | A,,6 A,,6 :: %8
w: fer- * * * vi- di'ac-|cen- ti, i|dit' _ a- * * mo-|ro- se.|
w: mo- * * * li ar-|do- ri, che|v'or- * na- * * no'il|vi- so.|
 A,,2 B,,2 C,2 D,2 D,2 C,2 | _B,,2 A,,2 G,,2 A,,4 A,,2 | D,2 D,2 D,2 A,2 A,2 B,2 | C4 F,2 F,2 G,4 | %12
w: Co- me splen- de- te si|va- gh'e si bel- le,|co- me ru- bel- le d'A-|mor non ar- de-|
w: Co- me nel cie- lo a-|ma- to'e se- re- no,|del vo- stro se- no si|fan- no di gie-|
 C,12 :| %13
w: te.|
w: lo!|
V:4
 [EGc]6 [DB]4 [EG]2 | [DFA]12 | [EAc]6 [Ad]4 [DB]2 | [EGc]12 | [FAc]6 [DB]4 [A^c]2 | %5
 [FAd]6 [FA]4 [Ec]2 | [EAc]4 [Fc]4 A2 [^GB]2 | [EA^c]12 :: [A^ce]2 [Dd]2 [Gc]2 [FAd]4 [EG]2 | %9
 [Gd]2 [Ec]2 [FB]2 [EA^c]6 | [FA]6 [Ec]4 [Gd]2 | [EGc]4 [Ac]4 [DB]4 | [EGc]12 :| %13
V:5
 C2 B,2 A,2 G,2 F,2 E,2 | D,6 D,6 | A,2 G,2 F,2 E,2 D,2 G,2 | C,6 C,6 | F,2 G,2 A,2 G,2 F,2 E,2 | %5
 D,6 D,4 A,,2 | A,2 G,2 F,2 E,2 D,2 E,2 | A,,6 A,,6 :: A,,2 B,,2 C,2 D,4 C,2 | %9
 _B,,2 A,,2 G,,2 A,,6 | D,6 A,4 B,2 | C4 F,4 G,4 | C,12 :| %13

